!!!OTL: The Bonniest Lass in A'The World 
!!!id: HA025
**kern
*clefF4
*k[f#c#]
*D:
*M2/2
{8.d
16e
=1
4f#
4A
4B
4d
=2
8g
8F#
8E
8d
4B}
{8A
8B
=3
4d
4dd
8.a
16b
8dd
8a
=4
2b
4a}
{8b
8cc#
=5
8dd
8cc#
8b
8a
8.b
16cc#
8dd
8f#
=6
8g
8f#
8e
8d
4B}
{8A
8B
=7
4d
4dd
8a
8b
8g
8a
=8
4.f#
8e
4d}
{8.b
16cc#
=9
8dd
8cc#
8b
8a
8.b
16cc#
8dd
8b
=10
8ee
8dd
8cc#
8b
8.cc#
16dd
8ee}
{8cc#
=11
8dd
8cc#
8dd
8ee
8ff#
8dd
8ee
8ff#
=12
2b
4a}
{8dd
8ee
=13
8ff#
8ee
8dd
8b
8a
8b
8dd
8f#
=14
8g
8f#
8e
8d
4B}
{8A
8B
=15
4d
4dd
8a
8b
8g
8a
=16
4.f#
8e
4d}
==
*-
!!!minrhy: 16
!!!meter: 2/2 
!!!cut: The Bonniest Lass in A'The World 
!!!key: HA025  16  D 2/2 
!!!bem: Vorschlge
!!!fog: a--b--c--bw-d--e--cw-bw-
!! Haydn: Volksliedbearbeitungen, Bd1
